X: 16029
T: Green Cake, The
R: reel
M: 4/4
K: Amajor
F2EF AFAB|cffe c2 BA|B3A B/c/d cB|AcBA BAFE|
F2EF AFAB|cffe c2 BA|a3b afef|ecBc A2 BA:|
F3c cBcA|E3c cBcA|D3c cBcA|B2 B/c/d cBAB|
F3c cBcA|E3c cBcA|D2 fe f3e|cafe cBAB|
F3c cBcA|E3c cBcA|D3c cBcA|B2 B/c/d cBAB|
F2EF AFAB|cffe c2 BA|~a3b afef|ecBc A4|

